assets/images/item_6427.svg

<?xml version="1.0" standalone="no"?><!DOCTYPE svg PUBLIC "-//W3C//DTD SVG 1.1//EN" "http://www.w3.org/Graphics/SVG/1.1/DTD/svg11.dtd"><svg xmlns="http://www.w3.org/2000/svg" version="1.1" width="144px" height="94.5px" viewBox="0 -5 144 94.5" style="top:-5px"><desc>positive yielding</desc><defs/><g id="Polygon10160"><path d="m15.6 46.3s-6.96 18.42-7 18.4c-.7 2-2.3 2.7-4.5 2.7c.02.02-2.4 0-2.4 0V64h1.8c1.2 0 1.9-.5 2.2-1.6c.04.03.3-.7.3-.7L0 46.3h4.1l3.8 10.6l3.7-10.6h4zm1.7-2.1h4.1v-4.4h-4.1v4.4zm.2 2.1h3.8v16h-3.8v-16zm10.3 9.2c.1 2.6 1.9 3.8 4.1 3.8c1.5 0 3-.6 3.4-2.1h3.6c-.7 3.6-3.9 5.5-7.2 5.5c-3.8 0-7.7-2.6-7.7-8.3c0-5.5 3.7-8.4 7.8-8.4c3.8 0 7.1 2.6 7.1 7.9c.02.01 0 1.6 0 1.6c0 0-11.12-.03-11.1 0zm.1-2.8h7.2c0-2.2-1.4-3.3-3.4-3.3c-1.8 0-3.5.9-3.8 3.3zm17.6 9.6h-3.8V40.2h3.8v22.1zm18.5 0h-3.8s.03-2.45 0-2.4c-.8 1.8-2.7 2.8-4.9 2.8c-3.7 0-7-2.8-7-8.4c0-5.5 3.3-8.3 7-8.3c2.1 0 3.9.9 4.8 2.4c.04.03 0-8.2 0-8.2h3.9v22.1zm-3.7-8c0-3.3-2-4.9-4.1-4.9c-2.1 0-4 1.6-4 4.9c0 3.2 1.9 4.8 4 4.8c2.1 0 4.1-1.5 4.1-4.8zm7.3-10.1h4.1v-4.4h-4.1v4.4zm.1 2.1h3.9v16h-3.9v-16zM89.4 52v10.3h-3.9s.05-9.96 0-10c0-1.8-1-2.8-2.8-2.8c-2.2 0-3.5 1.6-3.5 4.2v8.6h-3.9v-16h3.9s-.03 2.33 0 2.3c.9-1.4 2.2-2.6 4.8-2.6c3.7 0 5.4 2.2 5.4 6zm18 9.2c0 5.2-3.3 7.4-7.6 7.4c-3.9 0-7.1-1.8-7.6-5.8h3.8c.4 2 2 2.6 3.8 2.6c2.5 0 3.9-1.2 3.9-3.7V59c-.7 1.6-2.3 2.7-4.7 2.7c-3.6 0-7-2.4-7-7.8c0-5.4 3.4-7.9 7-7.9c2.3 0 3.9 1 4.7 2.5c.03.04 0-2.2 0-2.2h3.7s.04 14.94 0 14.9zm-3.8-7.3c0-3.1-1.7-4.5-3.8-4.5c-2.1 0-4 1.4-4 4.5c0 3 1.9 4.4 4 4.4c2.1 0 3.8-1.4 3.8-4.4z" stroke="none" fill="#000"/></g><g id="Polygon10159"><path d="m17.6 19.1c0 5.7-3.6 8.3-7.3 8.3c-2.2 0-3.7-.9-4.6-2c.04 0 0 7.9 0 7.9H1.9v-22h3.8s-.05 2.56 0 2.6c.8-1.8 2.6-2.9 4.9-2.9c3.8 0 7 2.7 7 8.1zm-3.9.2c0-3.3-1.9-4.7-4-4.7c-2.1 0-4.1 1.4-4.1 4.7c0 3.3 2 4.7 4.1 4.7c2.1 0 4-1.5 4-4.7zm21.3 0c0 5.3-3.4 8.4-7.9 8.4c-4.4 0-7.8-3.1-7.8-8.4c0-5.1 3.4-8.3 7.8-8.3c4.5 0 7.9 3.2 7.9 8.3zm-11.7 0c0 3.3 1.8 4.8 3.9 4.8c2.3 0 3.8-1.8 3.8-4.8c0-3.2-1.7-4.7-3.9-4.7c-2.3 0-3.8 1.8-3.8 4.7zm27.2 3.1c0 3.6-3.2 5.3-6.8 5.3c-3.3 0-6.9-1.5-7.1-5.5h3.9c.2 1.6 1.6 2.3 3.4 2.3c1.7 0 2.8-.5 2.8-1.8c0-1-.7-1.2-2.9-1.6c-3.2-.5-6.7-1-6.7-5c0-3.6 3-5.1 6.3-5.1c3.8 0 6.5 1.9 6.7 5.4h-3.7c-.2-1.6-1.3-2.2-2.9-2.2c-1.9 0-2.7.9-2.7 1.8c0 1.3 1.4 1.5 3.4 1.8c2.8.4 6.3.8 6.3 4.6zM53 9.2h4.1V4.8H53v4.4zm.1 2.1h3.9v16h-3.9v-16zm15.8 16s-2.55.02-2.5 0c-3 0-4.9-.9-4.9-5.2c-.05 0 0-7.3 0-7.3h-3v-3.5h3V7.7l3.8-1.1v4.7h3.2v3.5h-3.2v7.5c0 .9.3 1.6 1.6 1.6h2v3.4zm2-18.1h4.1V4.8h-4.1v4.4zm.1 2.1h3.9v16H71v-16zm15.7 16h-4.1l-5.9-16h4.1l3.9 11.4l4-11.4h4l-6 16zM97 20.5c.1 2.6 1.9 3.8 4.1 3.8c1.5 0 3-.6 3.4-2.1h3.6c-.7 3.6-3.9 5.5-7.2 5.5c-3.8 0-7.6-2.6-7.6-8.3c0-5.5 3.6-8.4 7.7-8.4c3.9 0 7.1 2.6 7.1 7.9c.04.01 0 1.6 0 1.6c0 0-11.1-.03-11.1 0zm.1-2.8h7.3c0-2.2-1.5-3.3-3.5-3.3c-1.8 0-3.5.9-3.8 3.3z" stroke="none" fill="#000"/></g></svg>

<?xml version="1.0" standalone="no"?><!DOCTYPE svg PUBLIC "-//W3C//DTD SVG 1.1//EN" "http://www.w3.org/Graphics/SVG/1.1/DTD/svg11.dtd"><svg xmlns="http://www.w3.org/2000/svg" version="1.1" width="144px" height="94.5px" viewBox="0 -5 144 94.5" style="top:-5px">  <desc>positive yielding</desc>  <defs/>  <g id="Polygon10160">    <path d="M 15.6 46.3 C 15.6 46.3 8.64 64.72 8.6 64.7 C 7.9 66.7 6.3 67.4 4.1 67.4 C 4.12 67.42 1.7 67.4 1.7 67.4 L 1.7 64 C 1.7 64 3.45 64 3.5 64 C 4.7 64 5.4 63.5 5.7 62.4 C 5.74 62.43 6 61.7 6 61.7 L 0 46.3 L 4.1 46.3 L 7.9 56.9 L 11.6 46.3 L 15.6 46.3 Z M 17.3 44.2 L 21.4 44.2 L 21.4 39.8 L 17.3 39.8 L 17.3 44.2 Z M 17.5 46.3 L 21.3 46.3 L 21.3 62.3 L 17.5 62.3 L 17.5 46.3 Z M 27.8 55.5 C 27.9 58.1 29.7 59.3 31.9 59.3 C 33.4 59.3 34.9 58.7 35.3 57.2 C 35.3 57.2 38.9 57.2 38.9 57.2 C 38.2 60.8 35 62.7 31.7 62.7 C 27.9 62.7 24 60.1 24 54.4 C 24 48.9 27.7 46 31.8 46 C 35.6 46 38.9 48.6 38.9 53.9 C 38.92 53.91 38.9 55.5 38.9 55.5 C 38.9 55.5 27.78 55.47 27.8 55.5 Z M 27.9 52.7 C 27.9 52.7 35.1 52.7 35.1 52.7 C 35.1 50.5 33.7 49.4 31.7 49.4 C 29.9 49.4 28.2 50.3 27.9 52.7 Z M 45.5 62.3 L 41.7 62.3 L 41.7 40.2 L 45.5 40.2 L 45.5 62.3 Z M 64 62.3 L 60.2 62.3 C 60.2 62.3 60.23 59.85 60.2 59.9 C 59.4 61.7 57.5 62.7 55.3 62.7 C 51.6 62.7 48.3 59.9 48.3 54.3 C 48.3 48.8 51.6 46 55.3 46 C 57.4 46 59.2 46.9 60.1 48.4 C 60.14 48.43 60.1 40.2 60.1 40.2 L 64 40.2 L 64 62.3 Z M 60.3 54.3 C 60.3 51 58.3 49.4 56.2 49.4 C 54.1 49.4 52.2 51 52.2 54.3 C 52.2 57.5 54.1 59.1 56.2 59.1 C 58.3 59.1 60.3 57.6 60.3 54.3 Z M 67.6 44.2 L 71.7 44.2 L 71.7 39.8 L 67.6 39.8 L 67.6 44.2 Z M 67.7 46.3 L 71.6 46.3 L 71.6 62.3 L 67.7 62.3 L 67.7 46.3 Z M 89.4 52 C 89.41 51.99 89.4 62.3 89.4 62.3 L 85.5 62.3 C 85.5 62.3 85.55 52.34 85.5 52.3 C 85.5 50.5 84.5 49.5 82.7 49.5 C 80.5 49.5 79.2 51.1 79.2 53.7 C 79.2 53.68 79.2 62.3 79.2 62.3 L 75.3 62.3 L 75.3 46.3 L 79.2 46.3 C 79.2 46.3 79.17 48.63 79.2 48.6 C 80.1 47.2 81.4 46 84 46 C 87.7 46 89.4 48.2 89.4 52 Z M 107.4 61.2 C 107.4 66.4 104.1 68.6 99.8 68.6 C 95.9 68.6 92.7 66.8 92.2 62.8 C 92.2 62.8 96 62.8 96 62.8 C 96.4 64.8 98 65.4 99.8 65.4 C 102.3 65.4 103.7 64.2 103.7 61.7 C 103.7 61.7 103.7 59 103.7 59 C 103 60.6 101.4 61.7 99 61.7 C 95.4 61.7 92 59.3 92 53.9 C 92 48.5 95.4 46 99 46 C 101.3 46 102.9 47 103.7 48.5 C 103.73 48.54 103.7 46.3 103.7 46.3 L 107.4 46.3 C 107.4 46.3 107.44 61.24 107.4 61.2 Z M 103.6 53.9 C 103.6 50.8 101.9 49.4 99.8 49.4 C 97.7 49.4 95.8 50.8 95.8 53.9 C 95.8 56.9 97.7 58.3 99.8 58.3 C 101.9 58.3 103.6 56.9 103.6 53.9 Z " stroke="none" fill="#000"/>  </g>  <g id="Polygon10159">    <path d="M 17.6 19.1 C 17.6 24.8 14 27.4 10.3 27.4 C 8.1 27.4 6.6 26.5 5.7 25.4 C 5.74 25.4 5.7 33.3 5.7 33.3 L 1.9 33.3 L 1.9 11.3 L 5.7 11.3 C 5.7 11.3 5.65 13.86 5.7 13.9 C 6.5 12.1 8.3 11 10.6 11 C 14.4 11 17.6 13.7 17.6 19.1 Z M 13.7 19.3 C 13.7 16 11.8 14.6 9.7 14.6 C 7.6 14.6 5.6 16 5.6 19.3 C 5.6 22.6 7.6 24 9.7 24 C 11.8 24 13.7 22.5 13.7 19.3 Z M 35 19.3 C 35 24.6 31.6 27.7 27.1 27.7 C 22.7 27.7 19.3 24.6 19.3 19.3 C 19.3 14.2 22.7 11 27.1 11 C 31.6 11 35 14.2 35 19.3 Z M 23.3 19.3 C 23.3 22.6 25.1 24.1 27.2 24.1 C 29.5 24.1 31 22.3 31 19.3 C 31 16.1 29.3 14.6 27.1 14.6 C 24.8 14.6 23.3 16.4 23.3 19.3 Z M 50.5 22.4 C 50.5 26 47.3 27.7 43.7 27.7 C 40.4 27.7 36.8 26.2 36.6 22.2 C 36.6 22.2 40.5 22.2 40.5 22.2 C 40.7 23.8 42.1 24.5 43.9 24.5 C 45.6 24.5 46.7 24 46.7 22.7 C 46.7 21.7 46 21.5 43.8 21.1 C 40.6 20.6 37.1 20.1 37.1 16.1 C 37.1 12.5 40.1 11 43.4 11 C 47.2 11 49.9 12.9 50.1 16.4 C 50.1 16.4 46.4 16.4 46.4 16.4 C 46.2 14.8 45.1 14.2 43.5 14.2 C 41.6 14.2 40.8 15.1 40.8 16 C 40.8 17.3 42.2 17.5 44.2 17.8 C 47 18.2 50.5 18.6 50.5 22.4 Z M 53 9.2 L 57.1 9.2 L 57.1 4.8 L 53 4.8 L 53 9.2 Z M 53.1 11.3 L 57 11.3 L 57 27.3 L 53.1 27.3 L 53.1 11.3 Z M 68.9 27.3 C 68.9 27.3 66.35 27.32 66.4 27.3 C 63.4 27.3 61.5 26.4 61.5 22.1 C 61.45 22.1 61.5 14.8 61.5 14.8 L 58.5 14.8 L 58.5 11.3 L 61.5 11.3 L 61.5 7.7 L 65.3 6.6 L 65.3 11.3 L 68.5 11.3 L 68.5 14.8 L 65.3 14.8 C 65.3 14.8 65.31 22.27 65.3 22.3 C 65.3 23.2 65.6 23.9 66.9 23.9 C 66.93 23.9 68.9 23.9 68.9 23.9 L 68.9 27.3 Z M 70.9 9.2 L 75 9.2 L 75 4.8 L 70.9 4.8 L 70.9 9.2 Z M 71 11.3 L 74.9 11.3 L 74.9 27.3 L 71 27.3 L 71 11.3 Z M 86.7 27.3 L 82.6 27.3 L 76.7 11.3 L 80.8 11.3 L 84.7 22.7 L 88.7 11.3 L 92.7 11.3 L 86.7 27.3 Z M 97 20.5 C 97.1 23.1 98.9 24.3 101.1 24.3 C 102.6 24.3 104.1 23.7 104.5 22.2 C 104.5 22.2 108.1 22.2 108.1 22.2 C 107.4 25.8 104.2 27.7 100.9 27.7 C 97.1 27.7 93.3 25.1 93.3 19.4 C 93.3 13.9 96.9 11 101 11 C 104.9 11 108.1 13.6 108.1 18.9 C 108.14 18.91 108.1 20.5 108.1 20.5 C 108.1 20.5 97 20.47 97 20.5 Z M 97.1 17.7 C 97.1 17.7 104.4 17.7 104.4 17.7 C 104.4 15.5 102.9 14.4 100.9 14.4 C 99.1 14.4 97.4 15.3 97.1 17.7 Z " stroke="none" fill="#000"/>  </g></svg>
